assets/img/social/tg.svg

<svg width="23" height="21" viewBox="0 0 23 21" fill="none" xmlns="http://www.w3.org/2000/svg">
<path d="M8.12065 18.7433C8.09079 18.6518 8.09079 18.5298 8.06094 18.4079C7.61311 16.3037 7.13543 14.1995 6.65774 12.0648C6.56818 11.6074 6.59803 11.4854 7.01601 11.2109C10.6285 8.92375 14.241 6.63658 17.8833 4.31892C17.9728 4.25793 18.0624 4.19694 18.152 4.16644C18.2714 4.13594 18.361 4.16644 18.4207 4.25793C18.4804 4.34941 18.4804 4.4409 18.3908 4.53239C18.3311 4.65437 18.2415 4.71536 18.1818 4.80685C16.9578 5.90469 15.7337 7.00253 14.5097 8.10037C12.6586 9.77762 10.8375 11.4244 9.0163 13.0711C8.86703 13.2236 8.71775 13.3456 8.6879 13.5896C8.59833 15.2973 8.47891 17.0051 8.35949 18.7128C8.35949 18.8958 8.4192 18.8958 8.53862 18.8958C8.83717 18.8958 9.04616 18.7738 9.25514 18.5603C10.0314 17.737 10.8375 16.9136 11.6137 16.0902C11.8227 15.8767 11.9421 15.8767 12.1511 16.0597C13.7633 17.2795 15.4053 18.4993 17.0175 19.7192C17.8236 20.3291 18.6595 19.9936 18.8685 19.0178C19.0775 18.0114 19.2865 17.0356 19.4955 16.0292C20.421 11.3939 21.3763 6.75856 22.3018 2.12324C22.3317 1.97076 22.3616 1.78779 22.3317 1.63531C22.2421 1.05589 21.6152 0.53747 20.7494 0.872921C16.7488 2.48918 12.7183 4.10545 8.71775 5.69122C6.03079 6.75856 3.31397 7.82591 0.627004 8.89325C0.418018 8.98474 0.238887 9.07622 0.119466 9.28969C-0.14923 9.74713 0.0896108 10.2655 0.627004 10.4485C2.20933 10.9365 3.79165 11.3939 5.37397 11.8818C5.64267 11.9428 5.76209 12.0648 5.85166 12.3697C6.4189 14.291 7.01601 16.1817 7.61311 18.1029C7.70268 18.3774 7.76239 18.6823 8.12065 18.7433Z" fill="#7AA4D9"/>
<path d="M8.12065 18.7433C7.76239 18.6823 7.70268 18.3774 7.61311 18.1029C7.01601 16.1817 6.4189 14.291 5.85166 12.3697C5.76209 12.0648 5.64267 11.9428 5.37397 11.8818C3.79165 11.3939 2.20933 10.9365 0.627004 10.4485C0.0896108 10.2655 -0.14923 9.74713 0.119466 9.28969C0.238887 9.07622 0.418018 8.98474 0.627004 8.92375C3.31397 7.8564 6.03079 6.78906 8.71775 5.72171C12.7183 4.10545 16.7488 2.48918 20.7494 0.872921C21.6152 0.53747 22.2123 1.05589 22.3317 1.63531C22.3616 1.81828 22.3317 1.97076 22.3018 2.12324C21.3763 6.75856 20.421 11.3939 19.4656 15.9987C19.2865 17.0051 19.0775 18.0114 18.8685 18.9873C18.6595 19.9631 17.7937 20.2986 17.0175 19.6887C15.4053 18.4689 13.7633 17.249 12.1511 16.0292C11.9123 15.8767 11.7928 15.8767 11.6137 16.0902C10.8375 16.9136 10.0314 17.737 9.25514 18.5603C9.04616 18.7738 8.83717 18.8958 8.53862 18.8958C8.4192 18.8958 8.35949 18.8958 8.35949 18.7128C8.47891 17.0051 8.59833 15.2973 8.6879 13.5896C8.71775 13.3456 8.86703 13.2236 9.0163 13.0711C10.8375 11.4244 12.6586 9.77762 14.5097 8.13086C15.7337 7.03302 16.9578 5.90469 18.1818 4.80685C18.2415 4.74586 18.3311 4.68486 18.3908 4.59338C18.4505 4.50189 18.4505 4.4104 18.3908 4.31892C18.3311 4.19694 18.2415 4.16644 18.1221 4.19694C18.0326 4.22743 17.943 4.28842 17.8534 4.34941C14.241 6.63658 10.6285 8.92375 6.98615 11.2414C6.59803 11.4854 6.56818 11.6074 6.65774 12.0648C7.13543 14.1995 7.61311 16.3037 8.06094 18.4079C8.09079 18.5298 8.09079 18.6518 8.12065 18.7433Z" fill="#FDFEFE"/>
</svg>

<svg width="23" height="21" fill="none" xmlns="http://www.w3.org/2000/svg"><path d="M8.12 18.743c-.03-.091-.03-.213-.06-.335-.447-2.104-.925-4.209-1.402-6.343-.09-.458-.06-.58.358-.854 3.613-2.287 7.225-4.574 10.867-6.892.09-.061.18-.122.269-.153.12-.03.209 0 .269.092.06.091.06.183-.03.274-.06.122-.15.183-.21.275L14.51 8.1a7059.761 7059.761 0 01-5.494 4.971c-.149.153-.298.275-.328.519-.09 1.707-.21 3.415-.329 5.123 0 .183.06.183.18.183.298 0 .507-.122.716-.336.776-.823 1.582-1.646 2.359-2.47.209-.213.328-.213.537-.03 1.612 1.22 3.254 2.44 4.866 3.66.807.61 1.643.274 1.852-.702.209-1.007.418-1.982.627-2.989.925-4.635 1.88-9.27 2.806-13.906.03-.152.06-.335.03-.488-.09-.58-.717-1.098-1.583-.762-4 1.616-8.03 3.232-12.031 4.818C6.03 6.76 3.314 7.826.627 8.893c-.209.092-.388.183-.508.397-.268.457-.03.976.508 1.159 1.582.488 3.165.945 4.747 1.433.269.06.388.183.478.488.567 1.921 1.164 3.812 1.761 5.733.09.274.15.58.508.64z" fill="#7AA4D9"/><path d="M8.12 18.743c-.358-.06-.417-.366-.507-.64-.597-1.921-1.194-3.812-1.761-5.733-.09-.305-.21-.427-.478-.488-1.582-.488-3.165-.945-4.747-1.434-.537-.183-.776-.7-.508-1.158.12-.214.299-.305.508-.366 2.687-1.068 5.404-2.135 8.09-3.202C12.719 4.105 16.75 2.489 20.75.872c.866-.335 1.463.184 1.583.763.03.183 0 .336-.03.488-.926 4.636-1.881 9.27-2.836 13.876a87.721 87.721 0 01-.598 2.988c-.208.976-1.074 1.312-1.85.702-1.613-1.22-3.255-2.44-4.867-3.66-.239-.152-.358-.152-.537.061-.777.824-1.583 1.647-2.359 2.47-.209.214-.418.336-.716.336-.12 0-.18 0-.18-.183.12-1.708.24-3.416.329-5.123.03-.244.179-.366.328-.519a938.415 938.415 0 015.494-4.94c1.224-1.098 2.448-2.226 3.672-3.324.06-.061.15-.122.209-.214a.233.233 0 000-.274c-.06-.122-.15-.153-.269-.122-.09.03-.179.091-.269.152-3.612 2.288-7.225 4.575-10.867 6.892-.388.244-.418.366-.328.824.477 2.135.955 4.239 1.403 6.343.03.122.03.244.06.335z" fill="#FDFEFE"/></svg>
